src/assets/duotone/Maker.svg

<svg width="24" height="24" viewBox="0 0 24 24"  xmlns="http://www.w3.org/2000/svg">
<path opacity="0.4" d="M12 22C17.5228 22 22 17.5228 22 12C22 6.47715 17.5228 2 12 2C6.47715 2 2 6.47715 2 12C2 17.5228 6.47715 22 12 22Z" />
<path d="M10.7501 15.2502C10.3401 15.2502 10.0001 14.9102 10.0001 14.5002V12.4202L7.33008 10.8202V14.5002C7.33008 14.9102 6.99008 15.2502 6.58008 15.2502C6.17008 15.2502 5.83008 14.9102 5.83008 14.5002V9.50019C5.83008 9.23019 5.98008 8.98019 6.21008 8.85019C6.44008 8.72019 6.73008 8.72019 6.96008 8.86019L11.1301 11.3602C11.3601 11.5002 11.4901 11.7402 11.4901 12.0002V14.5002C11.5001 14.9102 11.1601 15.2502 10.7501 15.2502Z" />
<path d="M17.42 15.2502C17.01 15.2502 16.67 14.9102 16.67 14.5002V10.8202L14 12.4202V14.5002C14 14.9102 13.66 15.2502 13.25 15.2502C12.84 15.2502 12.5 14.9102 12.5 14.5002V12.0002C12.5 11.7402 12.64 11.4902 12.86 11.3602L17.03 8.86019C17.26 8.72019 17.55 8.72019 17.78 8.85019C18.02 8.98019 18.16 9.23019 18.16 9.50019V14.5002C18.17 14.9102 17.83 15.2502 17.42 15.2502Z" />
</svg>

<?xml version="1.0" encoding="UTF-8"?>
<svg width="24" height="24" viewBox="0 0 24 24" xmlns="http://www.w3.org/2000/svg">
 <path d="m12 22c5.5228 0 10-4.4772 10-10 0-5.5228-4.4772-10-10-10-5.5228 0-10 4.4772-10 10 0 5.5228 4.4772 10 10 10z" opacity=".4"/>
 <path d="m10.75 15.25c-0.41 0-0.75-0.34-0.75-0.75v-2.08l-2.67-1.6v3.68c0 0.41-0.34 0.75-0.75 0.75s-0.75-0.34-0.75-0.75v-5c0-0.27 0.15-0.52 0.38-0.65s0.52-0.13 0.75 0.01l4.17 2.5c0.23 0.14 0.36 0.38 0.36 0.64v2.5c0.01 0.41-0.33 0.75-0.74 0.75z"/>
 <path d="m17.42 15.25c-0.41 0-0.75-0.34-0.75-0.75v-3.68l-2.67 1.6v2.08c0 0.41-0.34 0.75-0.75 0.75s-0.75-0.34-0.75-0.75v-2.5c0-0.26 0.14-0.51 0.36-0.64l4.17-2.5c0.23-0.14 0.52-0.14 0.75-0.01 0.24 0.13 0.38 0.38 0.38 0.65v5c0.01 0.41-0.33 0.75-0.74 0.75z"/>
</svg>
